svgs/duotone/person-breastfeeding.svg

<svg xmlns="http://www.w3.org/2000/svg" viewBox="0 0 448 512"><!--! Font Awesome Pro 6.4.0 by @fontawesome - https://fontawesome.com License - https://fontawesome.com/license (Commercial License) Copyright 2023 Fonticons, Inc. --><defs><style>.fa-secondary{opacity:.4}</style></defs><path class="fa-primary" d="M224 0a80 80 0 1 1 0 160A80 80 0 1 1 224 0zM436.8 382.8L373.5 462c-16.6 20.7-46.8 24.1-67.5 7.5c-17.6-14.1-22.7-38.1-13.5-57.7l-.8-.1c-38.9-5.6-74.3-25.1-99.7-54.8V320c0-17.7-14.3-32-32-32s-32 14.3-32 32v48c0 .8 0 1.6 .1 2.4l101.4 50.7c23.7 11.9 33.3 40.7 21.5 64.4s-40.7 33.3-64.4 21.5L27.2 427.3c-1.1-.5-2.2-1.1-3.3-1.7c-4.9-2.8-9.2-6.4-12.6-10.6c-4.6-5.4-7.8-11.7-9.6-18.4c-3.3-12-1.9-25.2 4.8-36.6c.6-1.1 1.3-2.2 2-3.2L75.6 256.1c26.7-40.1 71.7-64.1 119.8-64.1h75.2c46.5 0 90.1 22.5 117.2 60.3l50.7 70.9c2.2 3 4 6.1 5.5 9.4c2.9 6.7 4.3 13.8 4 20.8c-.3 10.6-4.2 21-11.2 29.4zM320 332a44 44 0 1 0 -88 0 44 44 0 1 0 88 0z"/><path class="fa-secondary" d="M160 288c17.7 0 32 14.3 32 32v36.8c25.4 29.7 60.8 49.3 99.7 54.8l.8 .1c-9.1 19.6-4.1 43.6 13.5 57.7c6.4 5.1 13.7 8.3 21.2 9.7c-3.7 .9-7.7 1.1-11.7 .5L282.7 475c-9.1-1.3-18.1-3.2-27-5.6c2.2-19.5-7.7-39.1-26.2-48.4L128.1 370.4c-.1-.8-.1-1.6-.1-2.4V320c0-17.7 14.3-32 32-32zm72 44a44 44 0 1 1 88 0 44 44 0 1 1 -88 0z"/></svg>

<svg xmlns="http://www.w3.org/2000/svg" viewBox="0 0 448 512"><!--! Font Awesome Pro 6.3.0 by @fontawesome - https://fontawesome.com License - https://fontawesome.com/license (Commercial License) Copyright 2023 Fonticons, Inc. --><defs><style>.fa-secondary{opacity:.4}</style></defs><path class="fa-primary" d="M144 80C144 35.82 179.8 0 224 0C268.2 0 304 35.82 304 80C304 124.2 268.2 160 224 160C179.8 160 144 124.2 144 80zM436.8 382.8L373.5 461.1C356.9 482.7 326.7 486 306 469.5C288.4 455.4 283.3 431.3 292.5 411.7L291.7 411.6C252.8 406.1 217.4 386.5 192 356.8V320C192 302.3 177.7 288 160 288C142.3 288 128 302.3 128 320V368C128 368.8 128 369.6 128.1 370.4L229.5 421.1C253.2 432.9 262.8 461.8 250.9 485.5C239.1 509.2 210.2 518.8 186.5 506.9L27.21 427.3C26.11 426.7 25.02 426.2 23.95 425.5C19.04 422.7 14.79 419.1 11.3 414.1C6.732 409.5 3.492 403.3 1.683 396.6C-1.576 384.6-.1811 371.4 6.459 359.9C7.098 358.8 7.776 357.8 8.489 356.7L75.56 256.1C102.3 216.1 147.2 192 195.4 192H270.6C317.1 192 360.7 214.5 387.8 252.3L438.5 323.2C440.7 326.2 442.5 329.4 443.9 332.7C446.9 339.3 448.2 346.4 447.1 353.5C447.7 364.1 443.8 374.5 436.8 382.8V382.8zM276 288C251.7 288 232 307.7 232 332C232 356.3 251.7 376 276 376C300.3 376 320 356.3 320 332C320 307.7 300.3 288 276 288z"/><path class="fa-secondary" d="M160 288C177.7 288 192 302.3 192 320V356.8C217.4 386.5 252.8 406.1 291.7 411.6L292.5 411.7C283.3 431.3 288.4 455.4 306 469.5C312.4 474.6 319.7 477.8 327.2 479.2C323.4 480.1 319.5 480.3 315.5 479.7L282.7 474.1C273.5 473.7 264.5 471.8 255.7 469.4C257.9 449.1 248 430.3 229.5 421.1L128.1 370.4C128 369.6 128 368.8 128 368V320C128 302.3 142.3 288 160 288H160zM320 332C320 356.3 300.3 376 276 376C251.7 376 232 356.3 232 332C232 307.7 251.7 288 276 288C300.3 288 320 307.7 320 332z"/></svg>
